src/icons/main-delete.svg

<svg enable-background="new 0 0 14 14" viewBox="0 0 14 14" xmlns="http://www.w3.org/2000/svg"><path d="m10.5 4.2c0-.4-.3-.7-.7-.7-.2 0-.4.1-.5.2l-2.3 2.3-2.3-2.3c-.1-.1-.3-.2-.5-.2-.4 0-.7.3-.7.7 0 .2.1.4.2.5l2.3 2.3-2.3 2.3c-.1.1-.2.3-.2.5 0 .4.3.7.7.7.2 0 .4-.1.5-.2l2.3-2.3 2.3 2.3c.1.1.3.2.5.2.4 0 .7-.3.7-.7 0-.2-.1-.4-.2-.5l-2.3-2.3 2.3-2.3c.1-.1.2-.3.2-.5zm-3.5-4.2c-3.9 0-7 3.1-7 7s3.1 7 7 7 7-3.1 7-7-3.1-7-7-7zm0 12.6c-3.1 0-5.6-2.5-5.6-5.6s2.5-5.6 5.6-5.6 5.6 2.5 5.6 5.6-2.5 5.6-5.6 5.6z" fill="#4d5969"/></svg>

<svg viewBox="0 0 14 14" xmlns="http://www.w3.org/2000/svg"><path d="M10.5 4.2c0-.4-.3-.7-.7-.7-.2 0-.4.1-.5.2L7 6 4.7 3.7c-.1-.1-.3-.2-.5-.2-.4 0-.7.3-.7.7 0 .2.1.4.2.5L6 7 3.7 9.3c-.1.1-.2.3-.2.5 0 .4.3.7.7.7.2 0 .4-.1.5-.2L7 8l2.3 2.3c.1.1.3.2.5.2.4 0 .7-.3.7-.7 0-.2-.1-.4-.2-.5L8 7l2.3-2.3c.1-.1.2-.3.2-.5zM7 0C3.1 0 0 3.1 0 7s3.1 7 7 7 7-3.1 7-7-3.1-7-7-7zm0 12.6c-3.1 0-5.6-2.5-5.6-5.6S3.9 1.4 7 1.4s5.6 2.5 5.6 5.6-2.5 5.6-5.6 5.6z" fill="#4d5969"/></svg>
